img/footer/icon/facebook.svg

<svg width="12" height="20" viewBox="0 0 12 20" fill="none" xmlns="http://www.w3.org/2000/svg">
<path d="M8.2 0.875C6.97337 0.875 5.79699 1.36228 4.92963 2.22963C4.06228 3.09699 3.575 4.27337 3.575 5.5V8.075H1.1C0.975736 8.075 0.875 8.17574 0.875 8.3V11.7C0.875 11.8243 0.975736 11.925 1.1 11.925H3.575V18.9C3.575 19.0243 3.67574 19.125 3.8 19.125H7.2C7.32426 19.125 7.425 19.0243 7.425 18.9V11.925H9.92192C10.0252 11.925 10.1152 11.8547 10.1402 11.7546L10.9902 8.35457C11.0257 8.21256 10.9183 8.075 10.7719 8.075H7.425V5.5C7.425 5.29446 7.50665 5.09733 7.65199 4.95199C7.79733 4.80665 7.99446 4.725 8.2 4.725H10.8C10.9243 4.725 11.025 4.62426 11.025 4.5V1.1C11.025 0.975736 10.9243 0.875 10.8 0.875H8.2Z" fill="#EEEDDE"/>
</svg>

<svg xmlns="http://www.w3.org/2000/svg" fill="none" viewBox="0 0 12 20"><path fill="#EEEDDE" d="M8.2.875A4.625 4.625 0 0 0 3.575 5.5v2.575H1.1c-.124 0-.225.1-.225.225v3.4c0 .124.1.225.225.225h2.475V18.9c0 .124.1.225.225.225h3.4c.124 0 .225-.1.225-.225v-6.975h2.497c.103 0 .193-.07.218-.17l.85-3.4a.225.225 0 0 0-.218-.28H7.425V5.5a.775.775 0 0 1 .775-.775h2.6c.124 0 .225-.1.225-.225V1.1c0-.124-.1-.225-.225-.225H8.2z"/></svg>
